www/assets/icons/repeat_one.svg

<svg xmlns="http://www.w3.org/2000/svg" width="24" height="24" viewBox="0 0 24 24" fill='currentColor'><path d="M7 7h10v3l4-4-4-4v3H5v6h2zm10 10H7v-3l-4 4 4 4v-3h12v-6h-2zm-4-2V9h-1l-2 1v1h1.5v4z"/></svg>

<svg width="24" height="24" viewBox="0 0 24 24" xmlns="http://www.w3.org/2000/svg" fill='currentColor'><path d="M7 7H17V10L21 6L17 2V5H5V11H7V7ZM17 17H7V14L3 18L7 22V19H19V13H17V17ZM13 15V9H12L10 10V11H11.5V15H13Z"/></svg>
